tn/basket.svg

<svg viewBox="0 0 15 15" fill="none" xmlns="http://www.w3.org/2000/svg" height="1em" width="1em">
  <path d="M6.92878 0.757233L4.38313 4.99998H10.6169L8.07129 0.757233L8.92878 0.242737L11.7831 4.99998H14.2968C14.6852 4.99998 15 5.31482 15 5.70318V6.14194C15 9.08554 14.3147 11.9887 12.9982 14.6215C12.8823 14.8535 12.6452 15 12.3859 15H2.61409C2.35478 15 2.11773 14.8535 2.00176 14.6215C0.685346 11.9887 0 9.08554 0 6.14194V5.70318C0 5.31482 0.314831 4.99998 0.703196 4.99998H3.21694L6.07129 0.242737L6.92878 0.757233Z" fill="black"/>
</svg>

<svg viewBox="0 0 15 15" fill="none" xmlns="http://www.w3.org/2000/svg" height="1em" width="1em">
  <path d="M6.929.757 4.383 5h6.234L8.07.757l.86-.514L11.783 5h2.514c.388 0 .703.315.703.703v.439a18.96 18.96 0 0 1-2.002 8.48.684.684 0 0 1-.612.378H2.614a.685.685 0 0 1-.612-.379A18.96 18.96 0 0 1 0 6.141v-.438C0 5.315.315 5 .703 5h2.514L6.07.243l.858.514Z" fill="#000"/>
</svg>
